style/triangle-up-white.svg

<svg height="45pt" viewBox="0 0 45 45" width="45pt" xmlns="http://www.w3.org/2000/svg" xmlns:xlink="http://www.w3.org/1999/xlink"><clipPath id="a"><path d="m0 2.640625h45v39.597656h-45zm0 0"/></clipPath><path d="m22 3.710938-21.121094 36.578124h42.242188zm0 0" fill="#fff" fill-rule="evenodd"/><g clip-path="url(#a)"><path d="m88 8.710938-21.121094 36.578124h42.242188zm0 0" fill="none" stroke="#000" stroke-linecap="square" stroke-miterlimit="3.25" stroke-width="1.32" transform="translate(-66 -5)"/></g></svg>

<?xml version="1.0" encoding="UTF-8"?>
<svg xmlns="http://www.w3.org/2000/svg" xmlns:xlink="http://www.w3.org/1999/xlink" width="45pt" height="45pt" viewBox="0 0 45 45" version="1.1">
<defs>
<clipPath id="clip1">
  <path d="M 0 2.640625 L 45 2.640625 L 45 42.238281 L 0 42.238281 Z M 0 2.640625 "/>
</clipPath>
</defs>
<g id="surface2761">
<path style=" stroke:none;fill-rule:evenodd;fill:rgb(100%,100%,100%);fill-opacity:1;" d="M 22 3.710938 L 0.878906 40.289062 L 43.121094 40.289062 Z M 22 3.710938 "/>
<g clip-path="url(#clip1)" clip-rule="nonzero">
<path style="fill:none;stroke-width:1.32;stroke-linecap:square;stroke-linejoin:miter;stroke:rgb(0%,0%,0%);stroke-opacity:1;stroke-miterlimit:3.25;" d="M 88 8.710938 L 66.878906 45.289062 L 109.121094 45.289062 Z M 88 8.710938 " transform="matrix(1,0,0,1,-66,-5)"/>
</g>
</g>
</svg>
